public/cloud-icons/azure/compute/aks-open-service-mesh.svg

<?xml version="1.0" encoding="UTF-8" standalone="no"?>
<!-- Generated by Microsoft Visio, SVG Export AKS Open Service Mesh.svg Page-1 -->

<svg
   xmlns:dc="http://purl.org/dc/elements/1.1/"
   xmlns:cc="http://creativecommons.org/ns#"
   xmlns:rdf="http://www.w3.org/1999/02/22-rdf-syntax-ns#"
   xmlns:svg="http://www.w3.org/2000/svg"
   xmlns="http://www.w3.org/2000/svg"
   xmlns:sodipodi="http://sodipodi.sourceforge.net/DTD/sodipodi-0.dtd"
   xmlns:inkscape="http://www.inkscape.org/namespaces/inkscape"
   width="56.695011"
   height="45.354"
   viewBox="0 0 56.695011 45.353999"
   xml:space="preserve"
   class="st5"
   version="1.1"
   id="svg45"
   sodipodi:docname="AKS Open Service Mesh.svg"
   style="font-size:12px;overflow:visible;color-interpolation-filters:sRGB;fill:none;fill-rule:evenodd;stroke-linecap:square;stroke-miterlimit:3"
   inkscape:version="0.92.5 (2060ec1f9f, 2020-04-08)"><metadata
   id="metadata49"><rdf:RDF><cc:Work
       rdf:about=""><dc:format>image/svg+xml</dc:format><dc:type
         rdf:resource="http://purl.org/dc/dcmitype/StillImage" /></cc:Work></rdf:RDF></metadata><sodipodi:namedview
   pagecolor="#ffffff"
   bordercolor="#666666"
   borderopacity="1"
   objecttolerance="10"
   gridtolerance="10"
   guidetolerance="10"
   inkscape:pageopacity="0"
   inkscape:pageshadow="2"
   inkscape:window-width="640"
   inkscape:window-height="480"
   id="namedview47"
   showgrid="false"
   inkscape:zoom="2.0816611"
   inkscape:cx="28.351477"
   inkscape:cy="22.667361"
   inkscape:window-x="0"
   inkscape:window-y="0"
   inkscape:window-maximized="0"
   inkscape:current-layer="svg45" />
	<style
   type="text/css"
   id="style2">
	<![CDATA[
		.st1 {fill:url(#grad0-6);stroke:none;stroke-linecap:butt;stroke-width:34}
		.st2 {fill:url(#grad0-10);stroke:none;stroke-linecap:butt;stroke-width:34}
		.st3 {fill:#9cebff;fill-opacity:0.5;stroke:none;stroke-linecap:butt;stroke-width:34}
		.st4 {fill:#50e6ff;stroke:none;stroke-linecap:butt;stroke-width:34}
		.st5 {fill:none;fill-rule:evenodd;font-size:12px;overflow:visible;stroke-linecap:square;stroke-miterlimit:3}
	]]>
	</style>

	<defs
   id="Patterns_And_Gradients">
		<linearGradient
   id="grad0-6"
   x1="0"
   y1="162.7446"
   x2="32.000188"
   y2="162.7446"
   gradientTransform="scale(1.7178024,0.58213913)"
   gradientUnits="userSpaceOnUse">
			<stop
   offset="0"
   stop-color="#773adc"
   stop-opacity="1"
   id="stop4" />
			<stop
   offset="1"
   stop-color="#552f99"
   stop-opacity="1"
   id="stop6" />
		</linearGradient>
		<linearGradient
   id="grad0-10"
   x1="0.0011814355"
   y1="109.52499"
   x2="41.307988"
   y2="109.52499"
   gradientTransform="scale(1.3304552,0.75162245)"
   gradientUnits="userSpaceOnUse">
			<stop
   offset="0"
   stop-color="#a67af4"
   stop-opacity="1"
   id="stop9" />
			<stop
   offset="1"
   stop-color="#773adc"
   stop-opacity="1"
   id="stop11" />
		</linearGradient>
	</defs>
	<g
   id="g43"
   transform="translate(-33.995023,-33.99886)">
		<title
   id="title15">Page-1</title>
		<g
   id="group12789-1"
   transform="translate(34,-34.0157)">
			<title
   id="title17">AKS Open Service Mesh.12789</title>
			<g
   id="group12790-2">
				<title
   id="title19">Sheet.12790</title>
				<g
   id="shape12791-3"
   transform="translate(0.857826)">
					<title
   id="title21">Sheet.12791</title>
					<path
   d="m 54.22,95.79 -24.81,14.05 a 4.05357,3.9526 0 0 1 -3.67,0 L 0.77,95.79 A 1.29765,1.26532 0 0 1 0.01,94.74 L 0,97.84 a 1.3008,1.2684 -180 0 0 0.77,1.05 l 24.96,14.05 a 4.05042,3.94953 -180 0 0 3.67,0 L 54.21,98.88 a 1.29135,1.25918 -180 0 0 0.76,-1.02 v -3.11 a 1.29135,1.25918 0 0 1 -0.75,1.04 z"
   class="st1"
   id="path23"
   inkscape:connector-curvature="0"
   style="fill:url(#grad0-6);stroke:none;stroke-width:34;stroke-linecap:butt" />
				</g>
				<g
   id="shape12792-7"
   transform="translate(0.86841,-3.09882)">
					<title
   id="title26">Sheet.12792</title>
					<path
   d="m 54.2,96.81 a 1.12442,1.09641 0 0 1 0.01,2.07 L 29.4,112.94 a 4.05042,3.94953 0 0 1 -3.67,0 L 0.76,98.88 A 1.12442,1.09641 0 0 1 0.75,96.81 L 25.56,82.75 a 4.05042,3.94953 0 0 1 3.67,0 z"
   class="st2"
   id="path28"
   inkscape:connector-curvature="0"
   style="fill:url(#grad0-10);stroke:none;stroke-width:34;stroke-linecap:butt" />
				</g>
				<g
   id="shape12793-11"
   transform="translate(0.86841,-13.5132)">
					<title
   id="title31">Sheet.12793</title>
					<path
   d="m 54.2,96.81 a 1.12442,1.09641 0 0 1 0.01,2.07 L 29.4,112.94 a 4.05042,3.94953 0 0 1 -3.67,0 L 0.76,98.88 A 1.12442,1.09641 0 0 1 0.75,96.81 L 25.56,82.75 a 4.05042,3.94953 0 0 1 3.67,0 z"
   class="st3"
   id="path33"
   inkscape:connector-curvature="0"
   style="fill:#9cebff;fill-opacity:0.5;stroke:none;stroke-width:34;stroke-linecap:butt" />
				</g>
				<g
   id="shape12794-13"
   transform="translate(0,-12.6248)">
					<title
   id="title36">Sheet.12794</title>
					<path
   d="m 28.43,113.37 a 4.61106,4.4962 0 0 1 -2.26,-0.54 l -1.85,-1.04 a 0.86356889,0.84205887 0 1 1 0.862998,-1.45881 L 27.03,111.37 a 3.3701,3.28616 -180 0 0 2.41,0.17 0.864034,0.842512 0 1 1 0.541736,1.60008 A 5.01736,4.89238 0 0 1 28.43,113.37 Z m 5.93,-2.75 a 0.862998,0.841502 0 0 1 -0.434649,-1.56937 L 38.54,106.44 a 0.86378584,0.84227081 0 0 1 0.869297,1.45574 L 34.8,110.51 a 0.859849,0.838431 0 0 1 -0.434649,0.11363 z M 20.13,109.3 a 0.856699,0.83536 0 0 1 -0.428349,-0.11363 L 15.08,106.59 a 0.86356889,0.84205887 0 1 1 0.862998,-1.45881 L 20.56,107.73 a 0.862998,0.841502 0 0 1 -0.431499,1.57244 z m 23.46,-3.91 a 0.862998,0.841502 0 0 1 -0.431499,-1.57244 L 47.77,101.21 a 0.86378584,0.84227081 0 0 1 0.869297,1.45574 L 44.03,105.28 a 0.856699,0.83536 0 0 1 -0.431499,0.11363 z M 10.88,104.1 a 0.859849,0.838431 0 0 1 -0.428349,-0.11363 L 5.82,101.38 A 0.862998,0.841502 0 1 1 6.682998,99.92426 L 11.31,102.52 a 0.862998,0.841502 0 0 1 -0.434649,1.57244 z m 41.95,-3.94 A 0.862998,0.841502 0 0 1 52.395351,98.59063 L 54.64,97.31 c 0.27,-0.15 0.33,-0.28 0.33,-0.3 0,-0.03 -0.07,-0.16 -0.34,-0.32 l 0.85,-1.46 0.01,0.01 a 1.97167,1.92256 0 0 1 0.02,3.53 l -2.25,1.27 a 0.859849,0.838431 0 0 1 -0.431499,0.11363 z M 1.2,98.78 1.19,98.77 A 1.97167,1.92256 0 0 1 1.18,95.24 l 2.24,-1.27 a 0.862998,0.841502 0 1 1 0.866148,1.45267 L 2.05,96.7 c -0.27,0.15 -0.33,0.27 -0.33,0.3 0,0.03 0.07,0.16 0.34,0.31 z M 50.42,94.2 A 0.856699,0.83536 0 0 1 49.988501,94.086366 L 45.37,91.48 a 0.86356889,0.84205887 0 0 1 0.862998,-1.45881 L 50.86,92.62 a 0.862998,0.841502 0 0 1 -0.431499,1.57244 z M 8.47,92.93 A 0.862998,0.841502 0 0 1 8.035351,91.36063 L 12.66,88.74 a 0.862998,0.841502 0 0 1 0.866148,1.45574 L 8.91,92.81 A 0.856699,0.83536 0 0 1 8.475351,92.923634 Z M 41.18,88.99 A 0.859849,0.838431 0 0 1 40.748501,88.876366 L 36.12,86.28 a 0.86356889,0.84205887 0 0 1 0.862998,-1.45881 L 41.61,87.42 a 0.862998,0.841502 0 0 1 -0.431499,1.57244 z M 17.71,87.69 A 0.862998,0.841502 0 0 1 17.275351,86.12063 L 21.89,83.51 a 0.86378584,0.84227081 0 1 1 0.869297,1.45574 L 18.14,87.58 a 0.856699,0.83536 0 0 1 -0.434649,0.113634 z m 14.22,-3.9 A 0.856699,0.83536 0 0 1 31.495351,83.676366 L 29.66,82.64 A 3.3575,3.27387 -180 0 0 27.23,82.47 0.862998,0.841502 0 0 1 26.688264,80.87299 5.02051,4.89545 0 0 1 28.25,80.64 a 4.61106,4.4962 0 0 1 2.27,0.54 l 1.84,1.04 a 0.862998,0.841502 0 0 1 -0.431499,1.57244 z"
   class="st4"
   id="path38"
   inkscape:connector-curvature="0"
   style="fill:#50e6ff;stroke:none;stroke-width:34;stroke-linecap:butt" />
				</g>
			</g>
		</g>
	</g>
</svg>

<svg xmlns="http://www.w3.org/2000/svg" xml:space="preserve" width="56.695" height="45.354" style="font-size:12px;overflow:visible;color-interpolation-filters:sRGB;fill-rule:evenodd;stroke-linecap:square;stroke-miterlimit:3" viewBox="0 0 56.695 45.354"><defs><linearGradient id="a" x1="0" x2="32" y1="162.745" y2="162.745" gradientTransform="scale(1.7178 .58214)" gradientUnits="userSpaceOnUse"><stop offset="0" stop-color="#773adc"/><stop offset="1" stop-color="#552f99"/></linearGradient><linearGradient id="b" x1=".001" x2="41.308" y1="109.525" y2="109.525" gradientTransform="scale(1.33046 .75162)" gradientUnits="userSpaceOnUse"><stop offset="0" stop-color="#a67af4"/><stop offset="1" stop-color="#773adc"/></linearGradient></defs><g transform="translate(-33.995 -33.999)"><title>Page-1</title><g transform="translate(34 -34.016)"><title>AKS Open Service Mesh.12789</title><title>Sheet.12790</title><g transform="translate(.858)"><title>Sheet.12791</title><path d="m54.22 95.79-24.81 14.05a4.054 3.953 0 0 1-3.67 0L.77 95.79a1.298 1.265 0 0 1-.76-1.05L0 97.84a1.3 1.268-180 0 0 .77 1.05l24.96 14.05a4.05 3.95-180 0 0 3.67 0l24.81-14.06a1.291 1.26-180 0 0 .76-1.02v-3.11a1.291 1.26 0 0 1-.75 1.04" style="fill:url(#a);stroke:none;stroke-width:34;stroke-linecap:butt"/></g><g transform="translate(.868 -3.099)"><title>Sheet.12792</title><path d="M54.2 96.81a1.124 1.096 0 0 1 .01 2.07L29.4 112.94a4.05 3.95 0 0 1-3.67 0L.76 98.88a1.124 1.096 0 0 1-.01-2.07l24.81-14.06a4.05 3.95 0 0 1 3.67 0z" style="fill:url(#b);stroke:none;stroke-width:34;stroke-linecap:butt"/></g><g transform="translate(.868 -13.513)"><title>Sheet.12793</title><path d="M54.2 96.81a1.124 1.096 0 0 1 .01 2.07L29.4 112.94a4.05 3.95 0 0 1-3.67 0L.76 98.88a1.124 1.096 0 0 1-.01-2.07l24.81-14.06a4.05 3.95 0 0 1 3.67 0z" style="fill:#9cebff;fill-opacity:.5;stroke:none;stroke-width:34;stroke-linecap:butt"/></g><g transform="translate(0 -12.625)"><title>Sheet.12794</title><path d="M28.43 113.37a4.611 4.496 0 0 1-2.26-.54l-1.85-1.04a.864.842 0 1 1 .863-1.459l1.847 1.039a3.37 3.286-180 0 0 2.41.17.864.843 0 1 1 .542 1.6 5.017 4.892 0 0 1-1.552.23m5.93-2.75a.863.842 0 0 1-.435-1.57l4.615-2.61a.864.842 0 0 1 .87 1.456l-4.61 2.614a.86.838 0 0 1-.435.114zm-14.23-1.32a.857.835 0 0 1-.428-.114l-4.622-2.596a.864.842 0 1 1 .863-1.459l4.617 2.599a.863.842 0 0 1-.431 1.572zm23.46-3.91a.863.842 0 0 1-.431-1.572l4.611-2.608a.864.842 0 0 1 .87 1.456l-4.61 2.614a.857.835 0 0 1-.431.114zm-32.71-1.29a.86.838 0 0 1-.428-.114L5.82 101.38a.863.842 0 1 1 .863-1.456l4.627 2.596a.863.842 0 0 1-.435 1.572zm41.95-3.94a.863.842 0 0 1-.435-1.57l2.245-1.28c.27-.15.33-.28.33-.3 0-.03-.07-.16-.34-.32l.85-1.46.01.01a1.972 1.923 0 0 1 .02 3.53l-2.25 1.27a.86.838 0 0 1-.431.114zM1.2 98.78l-.01-.01a1.972 1.923 0 0 1-.01-3.53l2.24-1.27a.863.842 0 1 1 .866 1.453L2.05 96.7c-.27.15-.33.27-.33.3s.07.16.34.31zm49.22-4.58a.857.835 0 0 1-.431-.114L45.37 91.48a.864.842 0 0 1 .863-1.459l4.627 2.599a.863.842 0 0 1-.431 1.572zM8.47 92.93a.863.842 0 0 1-.435-1.57l4.625-2.62a.863.842 0 0 1 .866 1.456L8.91 92.81a.857.835 0 0 1-.435.114Zm32.71-3.94a.86.838 0 0 1-.431-.114L36.12 86.28a.864.842 0 0 1 .863-1.459l4.627 2.599a.863.842 0 0 1-.431 1.572zm-23.47-1.3a.863.842 0 0 1-.435-1.57l4.615-2.61a.864.842 0 1 1 .87 1.456l-4.62 2.614a.857.835 0 0 1-.435.114zm14.22-3.9a.857.835 0 0 1-.435-.114L29.66 82.64a3.358 3.274-180 0 0-2.43-.17.863.842 0 0 1-.542-1.597 5.02 4.895 0 0 1 1.562-.233 4.611 4.496 0 0 1 2.27.54l1.84 1.04a.863.842 0 0 1-.431 1.572z" style="fill:#50e6ff;stroke:none;stroke-width:34;stroke-linecap:butt"/></g></g></g></svg>
